!!!COM: beyonce
!!!OTL: sweet-dreams
!!!RNB: hooktheoryid: NLAgQMavgyO
**kern	**text
*clefG2	*
*k[b-e-a-d-g-c-]	*
*M4/4	*
=1	=1
4b-	Ebm
2b-	.
8b-	.
8b-	.
=2	=2
8a-	Db
8a-	.
8a-	.
4dd-	.
4.a-	.
=3	=3
4r	Bbm
8a-	.
8a-	.
8a-	.
4.b-	.
=4	=4
8r	B
8a-	.
8a-	.
8a-	.
8a-	.
8g-	.
8a-	.
8b	.
=5	=5
4b-	Ebm
2b-	.
8b-	.
8b-	.
=6	=6
8a-	Db
8a-	.
8a-	.
4dd-	.
4.a-	.
=7	=7
8r	Gb
8g-	.
8g-	.
8g-	.
16g-	.
16e-	.
4.e-	.
=8	=8
8r	Abm
8a-	.
8a-	.
8a-	.
8a-	.
8f	.
8e-	.
8r	.
=9	=9
8r	Ebm
8dd-	.
8b-	.
8dd-	.
8b-	.
8dd-	.
8b-	.
8dd-	.
=10	=10
8b-	Db
8dd-	.
8b-	.
[4dd-	.
16dd-]	.
16r	.
8dd-	.
8dd-	.
=11	=11
8b-	Bbm
8dd-	.
8b-	.
[4dd-	.
16dd-]	.
16r	.
8dd-	.
8dd-	.
=12	=12
8b-	B
8dd-	.
8b-	.
8dd-	.
8r	.
8f	.
8g-	.
8a-	.
=13	=13
4b-	Ebm
2b-	.
8b-	.
8b-	.
=14	=14
8a-	Db
8a-	.
8a-	.
4dd-	.
4.a-	.
=15	=15
4r	Gb
8a-	.
8a-	.
8a-	.
8a-	.
4g-	.
=16	=16
8r	Abm
8a-	.
8g-	.
8a-	.
8b	.
8b-	.
8a-	.
8a-	.
=17	=17
1r	.
*-	*-